symbols/be/PVA-{40}.svg

<?xml version="1.0" encoding="UTF-8" standalone="no"?>
<!-- Initially created with Inkscape, optimized by hand -->

<svg
   version="1.1"
   width="20"
   height="17.320995"
   id="svg1"
   xmlns="http://www.w3.org/2000/svg"
   xmlns:svg="http://www.w3.org/2000/svg">
  <defs
     id="defs1" />
  <path
     id="Fond"
     d="M 20,-1.2580566e-6 H 3.1098633e-6 L 10.000003,17.320999 Z"
     fill="#edd827"
     style="stroke-width:0.1" />
  <path
     d="m 12.137598,7.8081727 c 0,-0.192 -0.16,-0.352001 -0.352001,-0.352001 h -0.714669 v -1.077337 c 0,-0.192 -0.16,-0.341334 -0.352001,-0.341334 -0.192,0 -0.362668,0.16 -0.362668,0.352001 v 1.06667 H 8.6922541 l 1.301338,-4.554681 c 0.05333,-0.202667 -0.08533,-0.426668 -0.341335,-0.426668 -0.128,-0.01067 -0.298667,0.07467 -0.341334,0.234667 l -1.440005,5.01335 c -0.032,0.138667 0.032,0.298667 0.096,0.341334 0.08533,0.07467 0.149334,0.106667 0.256001,0.106667 h 2.1333399 v 1.06667 c 0,0.192001 0.170668,0.352001 0.362668,0.352001 0.192001,0 0.352001,-0.16 0.352001,-0.352001 v -1.06667 h 0.714669 c 0.192001,0 0.352001,-0.170667 0.352001,-0.362668 z"
     id="text1"
     style="font-size:10.6667px;font-family:Isonorm;-inkscape-font-specification:'Isonorm, Normal';fill-rule:evenodd;stroke-width:0.08"
     aria-label="4" />
</svg>

<?xml version="1.0" encoding="UTF-8"?>
<svg xmlns="http://www.w3.org/2000/svg" xmlns:xlink="http://www.w3.org/1999/xlink" width="20" height="17.320995" viewBox="0 0 20 17.320995">
<path fill-rule="nonzero" fill="rgb(92.941176%, 84.705882%, 15.294118%)" fill-opacity="1" d="M 20 0 L 0 0 L 10 17.320312 Z M 20 0 "/>
<path fill-rule="evenodd" fill="rgb(0%, 0%, 0%)" fill-opacity="1" d="M 12.136719 7.808594 C 12.136719 7.617188 11.976562 7.457031 11.785156 7.457031 L 11.070312 7.457031 L 11.070312 6.378906 C 11.070312 6.1875 10.910156 6.039062 10.71875 6.039062 C 10.527344 6.039062 10.355469 6.199219 10.355469 6.390625 L 10.355469 7.457031 L 8.691406 7.457031 L 9.992188 2.902344 C 10.046875 2.699219 9.910156 2.476562 9.652344 2.476562 C 9.523438 2.464844 9.355469 2.550781 9.3125 2.710938 L 7.871094 7.722656 C 7.839844 7.863281 7.902344 8.023438 7.96875 8.0625 C 8.050781 8.140625 8.117188 8.171875 8.222656 8.171875 L 10.355469 8.171875 L 10.355469 9.238281 C 10.355469 9.429688 10.527344 9.589844 10.71875 9.589844 C 10.910156 9.589844 11.070312 9.429688 11.070312 9.238281 L 11.070312 8.171875 L 11.785156 8.171875 C 11.976562 8.171875 12.136719 8 12.136719 7.808594 Z M 12.136719 7.808594 "/>
</svg>
